eladmin-web/src/assets/icons/svg/mnt.svg

<?xml version="1.0" standalone="no"?><!DOCTYPE svg PUBLIC "-//W3C//DTD SVG 1.1//EN" "http://www.w3.org/Graphics/SVG/1.1/DTD/svg11.dtd"><svg t="1649727721107" class="icon" viewBox="0 0 1024 1024" version="1.1" xmlns="http://www.w3.org/2000/svg" p-id="21653" xmlns:xlink="http://www.w3.org/1999/xlink" width="200" height="200"><defs><style type="text/css"></style></defs><path d="M554.666667 896v85.333333h-85.333334v-85.333333h-341.333333A42.666667 42.666667 0 0 1 85.333333 853.333333V256h853.333334V853.333333a42.666667 42.666667 0 0 1-42.666667 42.666667h-341.333333zM341.333333 426.666667a128 128 0 1 0 128 128H341.333333V426.666667z m213.333334 0V512h256V426.666667h-256z m0 170.666666V682.666667h256v-85.333334h-256zM85.333333 128h853.333334v85.333333h-853.333334v-85.333333z" p-id="21654" fill="#bfbfbf"></path></svg>

<svg class="icon" viewBox="0 0 1024 1024" xmlns="http://www.w3.org/2000/svg" width="200" height="200"><defs><style/></defs><path d="M554.667 896v85.333h-85.334V896H128a42.667 42.667 0 0 1-42.667-42.667V256h853.334v597.333A42.667 42.667 0 0 1 896 896H554.667zM341.333 426.667a128 128 0 1 0 128 128h-128v-128zm213.334 0V512h256v-85.333h-256zm0 170.666v85.334h256v-85.334h-256zM85.333 128h853.334v85.333H85.333V128z"/></svg>
